X: 1
T: String Quartet in C Major opus 74 no 1 mvt 2
C: Franz Joseph Haydn
%%abc-version 2.0
%%abcx-abcm2ps-target-version 5.9.1 (29 Sep 2008)
%%abc-creator hum2abc beta
%%abcx-conversion-date 2021/02/14 14:38:31
%%abc-copyright Copyright (c) 1994, 2000 Center for Computer Assisted Research in the Humanities
%%abc-edited-by Frances Bennion
%%abcx-initial-encoding-date 1997/04/15
%%gracespace 0 6 6
%%humdrum-veritas 1371362548
%%humdrum-veritas-data 834228998
%%linebreak <none>
%%barnumbers 0
L: 1/8
M: 3/8
N: Derived from op74n1-02.krn
Q: "Andantino grazioso"
%%staves [1 2 3 4]
V: 1
V: 2
V: 3 clef=alto
V: 4 clef=bass
K: G
[V:1]z D B, [I:setbarnb2] |
[V:2]B, z z |
[V:3]D, z z |
[V:4][G,,G,] z z |
[V:1]G, B G |
[V:2]z z D |
[V:3]z z B, |
[V:4]z z G, |
[V:1]G F F |
[V:2]z D D |
[V:3]z C C |
[V:4]z A, A, |
[V:1]F z z |
[V:2]D z z |
[V:3]C z z |
[V:4]A, z z |
[V:1]C z z |
[V:2]A, z z |
[V:3]F, C A, |
[V:4]D, z z |
[V:1]z e c |
[V:2]z c A |
[V:3]F, z D |
[V:4]z z F, |
[V:1]^A B B |
[V:2]F G G |
[V:3]z D D |
[V:4]z G, G, |
[V:1]B z z |
[V:2]G z z |
[V:3]D z z |
[V:4]G, z z |
[V:1]z g g |
[V:2]z G G |
[V:3]=F D B, |
[V:4]=F, D, B,, |
[V:1]z g g |
[V:2]z G G |
[V:3]G E C |
[V:4]G, E, C, |
[V:1]z g g |
[V:2]z G G |
[V:3]_B G ^C |
[V:4]_B, G, ^C, |
[V:1]b g d |
[V:2]G3 |
[V:3]D B, B, |
[V:4]D,3 |
[V:1]c A F |
[V:2]F3 |
[V:3]A, C C |
[V:4]D,,3 |
[V:1]f g z |
[V:2]F G z |
[V:3]B,/D/ B,/D/ B,/D/ |
[V:4]G, G, G, |
[V:1]^a b z |
[V:2]^A B z |
[V:3]B,/D/ B,/D/ B,/D/ |
[V:4]G, G, G, |
[V:1]d'2 c'//b//a//g// |
[V:2]d2 c//B//A//G// |
[V:3]B,/D/ B,/D/ B,/D/ |
[V:4]G, G, G, |
[V:1]g f f |
[V:2]G F F |
[V:3]C/D/ C/D/ C/D/ |
[V:4]A, A, A, |
[V:1]_e d z |
[V:2]_E D z |
[V:3]A,/C/ A,/C/ A,/C/ |
[V:4]F, F, F, |
[V:1]^g a z |
[V:2]^G A z |
[V:3]A,/C/ A,/C/ A,/C/ |
[V:4]F, F, F, |
[V:1]e'2 d'//c'//b//a// |
[V:2]e2 d//c//B//A// |
[V:3]A,/C/ A,/C/ A,/D/ |
[V:4]F, F, F, |
[V:1]c' b b |
[V:2]c B B |
[V:3]B,/D/ B,/D/ B,/D/ |
[V:4]G, G, G, |
[V:1]b2 a//g//f//e// |
[V:2]G/B/ G/B/ G/B/ |
[V:3]B, z G |
[V:4]G, z z |
[V:1]e ^d d |
[V:2]A/B/ A/B/ A/B/ |
[V:3]F F F |
[V:4]z3 |
[V:1]b2 a//g//f//e// |
[V:2]G/B/ G/B/ G/B/ |
[V:3]E E E |
[V:4]z3 |
[V:1]d ^c c |
[V:2]G/A/ G/A/ G/A/ |
[V:3]E E E |
[V:4]z3 |
[V:1]e/d/ f/e/ g/f/ |
[V:2]A >e e/d/ |
[V:3]F ^C D |
[V:4]z3 |
[V:1]f e e |
[V:2]d ^c c |
[V:3]A,3 |
[V:4]z3 |
[V:1]z a a |
[V:2]z A A |
[V:3]G E ^C |
[V:4]G, E, ^C, |
[V:1]z a a |
[V:2]z A A |
[V:3]A F D |
[V:4]A, F, D, |
[V:1]z a a |
[V:2]z A f |
[V:3]c B B |
[V:4]C B, ^D |
[V:1]^g =g f |
[V:2]e e d |
[V:3]B A A |
[V:4]E ^C D |
[V:1]e d ^c |
[V:2]B A G |
[V:3]G F E |
[V:4]G, A, A, |
[V:1]d' ^c' b |
[V:2]d ^c B |
[V:3]A G F |
[V:4]F E D |
[V:1]^a b ^g |
[V:2]^A B ^G |
[V:3]E F D |
[V:4]^C D B, |
[V:1]a g f |
[V:2]A G F |
[V:3]E ^C D |
[V:4]^C ^A, B, |
[V:1]e g b |
[V:2]E G B |
[V:3]B,2 G |
[V:4]G,3 |
[V:1]d2 e |
[V:2]A2 G |
[V:3]F2 ^C |
[V:4]A,3 |
[V:1]d'3 |
[V:2]f3 |
[V:3]D/d/ D/d/ D/d/ |
[V:4]D,2 z |
[V:1]^c'/b/ b z |
[V:2]a/g/ g z |
[V:3]D/d/ D/d/ D/d/ |
[V:4]z3 |
[V:1]z3 |
[V:2]B,3 |
[V:3]D/d/ D/d/ D/d/ |
[V:4]G,3 |
[V:1]z3 |
[V:2]^G,/A,/ A, z |
[V:3]D/d/ D/d/ D/d/ |
[V:4]^E,/F,/ F, z |
[V:1]d'3 |
[V:2]f3 |
[V:3]D/d/ D/d/ D/d/ |
[V:4]z3 |
[V:1]^c'/b/ b z |
[V:2]a/g/ g z |
[V:3]D/d/ D/d/ D/d/ |
[V:4]z3 |
[V:1]z3 |
[V:2]B,3 |
[V:3]D/d/ D/d/ D/d/ |
[V:4]G,3 |
[V:1]z3 |
[V:2]^G,/A,/ A, z |
[V:3]D/d/ D/d/ D/d/ |
[V:4]^E,/F,/ F, z |
[V:1]d'/^c'/ c' z |
[V:2]e/g/ g z |
[V:3]D/d/ D/d/ D/d/ |
[V:4]z3 |
[V:1]e'/d'/ d' z |
[V:2]g/f/ f z |
[V:3]D/d/ D/d/ D/d/ |
[V:4]z3 |
[V:1]z3 |
[V:2]z3 |
[V:3]D/d/ D/d/ D/d/ |
[V:4]C A, F, |
[V:1]d' b g/e/ |
[V:2]b g B/G/ |
[V:3]D2 E |
[V:4]G,3 |
[V:1]d2 e |
[V:2]F2 G |
[V:3]F A ^C |
[V:4]A,2 A,, |
[V:1]d/A/ f/A/ a/A/ |
[V:2]F2 A |
[V:3]D/A,/ F/A,/ A/A,/ |
[V:4]D,2 z |
[V:1]g/A/ e/A/ ^c/A/ |
[V:2]G E ^C |
[V:3]G/A,/ E/A,/ ^C/A,/ |
[V:4]z3 |
[V:1]d/A/ f/A/ a/A/ |
[V:2]D/A,/ F/A,/ A/A,/ |
[V:3]D F, A, |
[V:4]D,/A,,/ F,/A,,/ A,/A,,/ |
[V:1]g/A/ e/A/ ^c/A/ |
[V:2]G/A,/ E/A,/ ^C/A,/ |
[V:3]G, E, ^C, |
[V:4]G,/A,,/ E,/A,,/ ^C,/A,,/ |
[V:1]d/A/ F/A/ d/A/ |
[V:2]D F/A/ d/A/ |
[V:3]D,/A,/ F,/A,/ D/A,/ |
[V:4]D,/A,,/ F,,/A,,/ D,/A,,/ |
[V:1]d D D |
[V:2]F A, A, |
[V:3]D F, F, |
[V:4]D, D,, D,, |
[V:1]D z z |
[V:2]A, z z |
[V:3]F, z z |
[V:4]D,, z z |
[V:1]z d d |
[V:2]z D D |
[V:3]c A F |
[V:4]C A, F, |
[V:1]z d d |
[V:2]z D D |
[V:3]B G D |
[V:4]B, G, D, |
[V:1]z d d |
[V:2]z D D |
[V:3]c A F |
[V:4]C A, F, |
[V:1]z d d |
[V:2]z D D |
[V:3]_B G D |
[V:4]_B, G, D, |
[V:1]z [dD] [=Fd] |
[V:2]D _A A |
[V:3][=F3_B,3] |
[V:4]_A, =F, D,/_B,,/ |
[V:1][G,_e_E] _B G |
[V:2]G2 z |
[V:3][G2_B,2] z |
[V:4]_E,2 z |
[V:1]_E g _e |
[V:2]z z _B |
[V:3]z z G |
[V:4]z z _E |
[V:1]_e d d |
[V:2]z _B B |
[V:3]z _A A |
[V:4]z =F F |
[V:1]d z z |
[V:2]_B z z |
[V:3]_A z z |
[V:4]=F z z |
[V:1]z _A =F |
[V:2][D_A,] z z |
[V:3]=F, z z |
[V:4]_B,, z z |
[V:1]D c' _a |
[V:2]z _a =f |
[V:3]z z _B |
[V:4]z z D |
[V:1]f g g |
[V:2]d _e e |
[V:3]z _B B |
[V:4]z _E E |
[V:1]g _e e |
[V:2]_e _E E |
[V:3]_B z z |
[V:4]_E z z |
[V:1]z _e e |
[V:2]z _E E |
[V:3]_D _B, G, |
[V:4]z3 |
[V:1]z _e e |
[V:2]z _E E |
[V:3]z3 |
[V:4]C _A, _E, |
[V:1]z e e |
[V:2]z E E |
[V:3]_B, G, C, |
[V:4]z3 |
[V:1]z =f f |
[V:2]z =F F |
[V:3]z3 |
[V:4]C _A, =F, |
[V:1]z f f |
[V:2]z F F |
[V:3]_E C A, |
[V:4]z3 |
[V:1]z g g |
[V:2]z G G |
[V:3]z3 |
[V:4]D _B, G, |
[V:1]z ^g g |
[V:2]z ^G G |
[V:3]=F D B, |
[V:4]z3 |
[V:1]z a a |
[V:2]z A A |
[V:3]z3 |
[V:4]E C A, |
[V:1]c' ^d d |
[V:2]^D A A |
[V:3]A, C A, |
[V:4]=F,3 |
[V:1]e2 z |
[V:2]^G2 z |
[V:3]E/e/ E/e/ E/e/ |
[V:4]E,2 z |
[V:1]e'3 |
[V:2]c'3 |
[V:3]E/e/ E/e/ E/e/ |
[V:4]z3 |
[V:1]^c'/d'/ d' z |
[V:2]^a/b/ b z |
[V:3]E/e/ E/e/ E/e/ |
[V:4]z3 |
[V:1]z3 |
[V:2]D3 |
[V:3]E/e/ E/e/ E/e/ |
[V:4]B,3 |
[V:1]z3 |
[V:2]B,/C/ C z |
[V:3]E/e/ E/e/ _E/_e/ |
[V:4]^G,/A,/ A, z |
[V:1]d'3 |
[V:2]b3 |
[V:3]D/d/ D/d/ D/d/ |
[V:4]z3 |
[V:1]b/c'/ c' z |
[V:2]^g/a/ a z |
[V:3]D/d/ D/d/ D/d/ |
[V:4]z3 |
[V:1]z3 |
[V:2]C3 |
[V:3]D/d/ D/d/ D/d/ |
[V:4]A,3 |
[V:1]z3 |
[V:2]^A,/B,/ B, z |
[V:3]D/d/ D/d/ D/d/ |
[V:4]F,/G,/ G, z |
[V:1]d'/^c'/ c' z |
[V:2]e/g/ g z |
[V:3]D/d/ D/d/ D/d/ |
[V:4]z3 |
[V:1]e'/d'/ d' z |
[V:2]g/f/ f z |
[V:3]D/d/ D/d/ D/d/ |
[V:4]z3 |
[V:1]e'/d'/ d' z |
[V:2]f/f/ f z |
[V:3]D/c/ D/c/ D/c/ |
[V:4]z3 |
[V:1]e'/d'/ d' z |
[V:2]f/g/ g z |
[V:3]D/B/ D/B/ D/B/ |
[V:4]z3 |
[V:1]d'/c'/ c' z |
[V:2]f/a/ a z |
[V:3]D/F/ D/F/ D/F/ |
[V:4]z3 |
[V:1][bdG] z z |
[V:2][gBD] D B, |
[V:3][GG,] z z |
[V:4][G,,G,] z z |
[V:1]z3 |
[V:2]G, B G |
[V:3]z z [DB,] |
[V:4]z z G, |
[V:1]z d/e//f// g//a//b//c'// |
[V:2]G F F |
[V:3]z [DC] [DC] |
[V:4]z A, A, |
[V:1]d'/d'/ d'/d'/ d'/d'/ |
[V:2]F z z |
[V:3][DC] z z |
[V:4]A, z z |
[V:1]d' z z |
[V:2]C z z |
[V:3]F, C A, |
[V:4][D,A,] z z |
[V:1]z3 |
[V:2]z e c |
[V:3]F, c A |
[V:4]z z F, |
[V:1]z G/A//B// c//d//e//f// |
[V:2]^A B B |
[V:3]F G G |
[V:4]z G,, G,, |
[V:1]g/g/ g/g/ g/g/ |
[V:2]B z z |
[V:3]G z z |
[V:4]G,, z z |
[V:1]g//a//g//f// g/g/ g/g/ |
[V:2]G//A//G//F// G/G/ G/G/ |
[V:3]=F D B, |
[V:4]=F, D, B,, |
[V:1]g//a//g//f// g/g/ g/g/ |
[V:2]G//A//G//F// G/G/ G/G/ |
[V:3]G E C |
[V:4]G, E, C, |
[V:1]g//a//g//f// g/g/ g/g/ |
[V:2]G//A//G//F// G/G/ G/G/ |
[V:3]_B G ^C |
[V:4]_B, G, ^C, |
[V:1](3b/a/g/ (3b/a/g/ (3f/e/d/ |
[V:2](3B/A/G/ (3B/A/G/ (3F/E/D/ |
[V:3]D3 |
[V:4]D,3 |
[V:1](3c/B/A/ (3G/F/E/ (3D/E/F/ |
[V:2](3C/B,/A,/ (3G/F/E/ (3D/E/F/ |
[V:3]F,2 C |
[V:4]D,,3 |
[V:1]f g z |
[V:2]F G z |
[V:3]B,/D/ B,/D/ B,/D/ |
[V:4]G,, G, G, |
[V:1]^a b z |
[V:2]^A B z |
[V:3]B,/D/ B,/D/ B,/D/ |
[V:4]G, G, G, |
[V:1]d'2 c'//b//a//g// |
[V:2]d2 c//B//A//G// |
[V:3]B,/D/ B,/D/ B,/D/ |
[V:4]G, G, G, |
[V:1]g f f |
[V:2]G F F |
[V:3]C/D/ C/D/ C/D/ |
[V:4]A, A, A, |
[V:1]_e d z |
[V:2]_E D z |
[V:3]A,/C/ A,/C/ A,/C/ |
[V:4]F, F, F, |
[V:1]^g a z |
[V:2]^G A z |
[V:3]A,/C/ A,/C/ A,/C/ |
[V:4]F, F, F, |
[V:1]e'2 d'//c'//b//a// |
[V:2]e2 d//c//B//A// |
[V:3]A,/C/ A,/C/ A,/C/ |
[V:4]F, F, F, |
[V:1]c' b b |
[V:2]c B B |
[V:3]B,/D/ B,/D/ B,/D/ |
[V:4]G, G G |
[V:1]g' f' e' |
[V:2]g f e |
[V:3]d c B |
[V:4]B A G |
[V:1]^d' e' ^c' |
[V:2]^d e ^c |
[V:3]A B G |
[V:4]F G E |
[V:1]d' c' b |
[V:2]d c B |
[V:3]A F G |
[V:4]F ^D E |
[V:1]a c' e' |
[V:2]A c e |
[V:3]E2 c |
[V:4]C3 |
[V:1]g2 a |
[V:2]d2 c |
[V:3]B2 F |
[V:4]D3 |
[V:1]g3 |
[V:2]G,/G/ G,/G/ G,/G/ |
[V:3]B3 |
[V:4]G,2 z |
[V:1]f/e/ e z |
[V:2]G,/G/ G,/G/ G,/G/ |
[V:3]d/c/ c z |
[V:4]z3 |
[V:1]z3 |
[V:2]G,/G/ G,/G/ G,/G/ |
[V:3]E3 |
[V:4]C3 |
[V:1]z3 |
[V:2]G,/G/ G,/G/ G,/G/ |
[V:3]^C/D/ D z |
[V:4]^A,/B,/ B, z |
[V:1]g3 |
[V:2]G,/G/ G,/G/ G,/G/ |
[V:3]B3 |
[V:4]z3 |
[V:1]f/e/ e z |
[V:2]G,/G/ G,/G/ G,/G/ |
[V:3]d/c/ c z |
[V:4]z3 |
[V:1]z3 |
[V:2]G,/G/ G,/G/ G,/G/ |
[V:3]E,3 |
[V:4]C,3 |
[V:1]z3 |
[V:2]G,/G/ G,/G/ G,/G/ |
[V:3]^C,/D,/ D, z |
[V:4]^A,,/B,,/ B,, z |
[V:1]g/f/ f z |
[V:2]G,/G/ G,/G/ G,/G/ |
[V:3]A/c/ c z |
[V:4]z3 |
[V:1]a/g/ g z |
[V:2]G,/G/ G,/G/ G,/G/ |
[V:3]c/B/ B z |
[V:4]z3 |
[V:1]z3 |
[V:2]G,/G/ G,/G/ G,/G/ |
[V:3]z3 |
[V:4]=F, D, B,, |
[V:1]g e c/A/ |
[V:2]e c A |
[V:3][E3G,3] |
[V:4]C,3 |
[V:1]G2 A |
[V:2]G2 F |
[V:3]B,2 C |
[V:4]D,2 D,, |
[V:1]G2 z |
[V:2]G2 z |
[V:3]B, z z |
[V:4]G,, G E |
[V:1]z3 |
[V:2]z3 |
[V:3]z c A |
[V:4]C3- |
[V:1]z3 |
[V:2]z e c |
[V:3]F3- |
[V:4]C3- |
[V:1]z a f |
[V:2]A3- |
[V:3]F3- |
[V:4]C3- |
[V:1]d e f |
[V:2]A B c |
[V:3]F G D |
[V:4]C B, A, |
[V:1]g d B |
[V:2]B3 |
[V:3]D3 |
[V:4]G,3 |
[V:1]e c A |
[V:2]c E C |
[V:3]G2 E |
[V:4]C,3 |
[V:1]G2 A |
[V:2]B,2 C |
[V:3]D2 F, |
[V:4]D,2 D,, |
[V:1]G2 z |
[V:2]B,2 z |
[V:3]G,2 z |
[V:4]G,, G/F/ G/E/ |
[V:1]z3 |
[V:2]z3 |
[V:3]z c/B/ c/A/ |
[V:4]C3- |
[V:1]z3 |
[V:2]z e/^d/ e/c/ |
[V:3]F3- |
[V:4]C3- |
[V:1]z a/^g/ a/f/ |
[V:2]A3- |
[V:3]F3- |
[V:4]C3- |
[V:1]^d d d |
[V:2]A A A |
[V:3]F F F |
[V:4]C C C |
[V:1]^d d d |
[V:2]A ^G G |
[V:3]F F F |
[V:4]C ^B,,, B,,, |
[V:1]^d3 |
[V:2]^G3- |
[V:3]F3 |
[V:4]^B,,,3 |
[V:1]e3 |
[V:2]G3 |
[V:3]E3 |
[V:4]^C,,3 |
[V:1]z ^G E |
[V:2]^G, z z |
[V:3]E, z z |
[V:4]^C, z z |
[V:1]^C ^c ^G |
[V:2]^G, z z |
[V:3]E, z z |
[V:4]^C, z z |
[V:1]E e ^c |
[V:2]^G, z z |
[V:3]E, z z |
[V:4]^C, z z |
[V:1]A e ^c |
[V:2]A, z z |
[V:3]E, z z |
[V:4]^C, z z |
[V:1]G e e |
[V:2]_B, G G |
[V:3]E,/G,/ _B, B, |
[V:4]^C,3 |
[V:1][Dd] B G |
[V:2][G3B3] |
[V:3][B,3G3] |
[V:4]D,3 |
[V:1]c A F |
[V:2][F2A,2] C |
[V:3]C2 A, |
[V:4]D,,3 |
[V:1]G D D |
[V:2]B,/D/ B,/D/ B,/D/ |
[V:3]G,/B,/ G,/B,/ G,/B,/ |
[V:4]G,,2 z |
[V:1]B2 A//G//F//E// |
[V:2]B,/D/ B,/D/ B,/D/ |
[V:3]G,/B,/ G,/B,/ G,/B,/ |
[V:4]G,2 z |
[V:1]D D D |
[V:2]C/D/ C/D/ C/D/ |
[V:3]A,/C/ A,/C/ A,/C/ |
[V:4]F,2 z |
[V:1](3:2:2c-c/8B//A// G//F//E//D// C//|
[V:2]C/D/ C/D/ C/D/ |
[V:3]A,/C/ A,/C/ A,/C/ |
[V:4]F,,3 |
[V:1]B, d d |
[V:2]B,/d/ B/d/ B/d/ |
[V:3]G,/B/ G/B/ G/B/ |
[V:4]G,,2 z |
[V:1]b2 a//g//f//e// |
[V:2]B/d/ B/d/ B/d/ |
[V:3]G/B/ G/B/ G/B/ |
[V:4]G,2 z |
[V:1]d d d |
[V:2]c/d/ c/d/ c/d/ |
[V:3]A/c/ A/c/ A/c/ |
[V:4]F,2 z |
[V:1](3:2:2c'-c'/8b//a// g//f//e//d// c//|
[V:2]c/d/ c/d/ c/d/ |
[V:3]A/c/ A/c/ A/c/ |
[V:4]F3 |
[V:1]B d' d' |
[V:2]B z z |
[V:3][BD] z z |
[V:4]G z z |
[V:1]d'2 c'//b//a//^g// |
[V:2]^G2 =f |
[V:3]=F2 D |
[V:4]B,3 |
[V:1]a/c'/ e' z |
[V:2]e/c/ A z |
[V:3]C2 z |
[V:4]C2 z |
[V:1]z F z |
[V:2]z C z |
[V:3]A, z z |
[V:4]D, z z |
[V:1]G/D/ B/D/ d/D/ |
[V:2]G, B, D |
[V:3]G,/D,/ B,/D,/ D/D,/ |
[V:4]G,,2 z |
[V:1]c/D/ A/D/ F/D/ |
[V:2]C A, F |
[V:3]C/D,/ A,/D,/ F,/D,/ |
[V:4]z3 |
[V:1]G/D/ B/D/ d/D/ |
[V:2]G/D/ B/D/ d/D/ |
[V:3]G,/D,/ B,/D,/ D/D,/ |
[V:4]G,/D,/ B,/D,/ D/D,/ |
[V:1]c/D/ A/D/ F/D/ |
[V:2]c/D/ A/D/ F/D/ |
[V:3]C/D,/ A,/D,/ F,/D,/ |
[V:4]C/D,/ A,/D,/ F,/D,/ |
[V:1]G/D/ B,/D/ G/D/ |
[V:2]G/D/ B,/D/ G/D/ |
[V:3]G,/D/ B,/D/ G/D/ |
[V:4]G,/D,/ B,,/D,/ G,/D,/ |
[V:1]G B, B, |
[V:2]G B, B, |
[V:3]B, D, D, |
[V:4]G, G,, G,, |
[V:1]B, z z |]
[V:2]B, z z |]
[V:3]D, z z |]
[V:4]G,, z z |]

